X:1
T:Arabesque No. 1 in E Major
T:Arabesque No. 1 in E Major
T:Claude Debussy (1862–1918) 
C:Claude Achille Debussy(1862–1918)
%%score { ( 1 3 ) | ( 2 4 ) }
L:1/8
Q:1/4=60
M:4/4
K:E
V:1 treble nm="Piano"
V:3 treble 
V:2 treble 
V:4 treble 
V:1
!p! x2[Q:1/4=120]"^Andantino con moto" (3cef (3gdB x2[Q:1/4=90][Q:1/4=110][Q:1/4=90] | %1
 x2 (3Acd (3eBG x2[Q:1/4=120]"^Andantino con moto" | z2!<(! (c2 f2 c2-!<)! | %3
!mp! c2)!<(! (c2 f2 a2-!<)! | %4
[Q:1/4=92]"^Andante"!mf!!<(! (a2)[Q:1/4=80] a4-!<)!!>(! (3a[Q:1/8=40]gf)!>)![Q:1/4=70][Q:1/4=50]"^Largo"[Q:1/4=116]"^rit."[Q:1/4=50]"^Largo"[Q:1/4=35]"^Grave" | %5
[Q:1/4=120]"^a tempo"!pp! z2 (3(efc (3eBc (3GBF | (3GEG D4 C2 | B,) z (3(efc (3eBc (3GBF | %8
 (3GEG D4 C2) |"^poco a poco cresc."!<(! (3(B,A,B, C2- CEDE | C2)!p! (G4 E2) | %11
!mp! (3(DCD E2- EGFG | %12
"^sempre cresc."[Q:1/4=122]"^stringendo" E2)!mf! (c4 (3^AcA[Q:1/4=124]"^124" | %13
[Q:1/4=126]"^126" G2)!f! (e4 (3cec)[Q:1/4=128]"^128" | %14
[Q:1/4=130]"^130"!ff! (g3[Q:1/4=124]"^110" f)[Q:1/4=124]"^105" (g3[Q:1/4=100] f)[Q:1/4=124]"^125"[Q:1/4=124]"^120" | %15
!f! (g3!mf![Q:1/4=90] f)[Q:1/4=130]"^rit."[Q:1/4=80] !tenuto!g[Q:1/4=122]"^122"[Q:1/4=80] !tenuto!f2[Q:1/4=112]"^112"!mp![Q:1/4=60] !tenuto!g!<)! | %16
!p![Q:1/4=120]"^a tempo"[Q:1/4=60] (a4 g4[Q:1/4=90][Q:1/4=120]"^Andantino con moto" | f4 e4) | %18
!<(! (d4 e2[Q:1/4=100] g[Q:1/4=80]b)!<)! | %19
!mp!!>(! (d4-!>)!!p! dceg)[Q:1/4=120]"^Andantino con moto" | (B4- BAce | %21
 G4)!p![Q:1/4=80] (3z[Q:1/4=116]"^rit."[Q:1/4=80] (A[Q:1/4=80]c[Q:1/4=71]"^Adagio" (3eg[Q:1/4=50]"^Largo"f[Q:1/4=114]"^Moderato" | %22
[Q:1/4=112]"^112"[Q:1/4=92]"^Andante" d2 G2)[Q:1/4=120]"^a tempo" z!<(! (FAc!<)![Q:1/4=120]"^Andantino con moto" | %23
!mp! E4) (3z[Q:1/4=116]"^rit."!p![Q:1/4=80] (F[Q:1/4=80]A[Q:1/4=71]"^Adagio" (3c[Q:1/4=50]"^Largo"e=d[Q:1/4=114]"^Moderato" | %24
[Q:1/4=92]"^Andante" G2[Q:1/4=71]"^Adagio" F4[Q:1/4=50]"^Largo" =D2)[Q:1/4=35]"^Grave" | %25
[K:bass]!p![Q:1/4=50]"^Largo" (C8-[Q:1/4=120]"^a tempo" | C2[Q:1/4=114]"^Moderato" C2 E2 C2) | %27
[K:treble] F8- | F2"^cresc."[Q:1/4=124]"^poco mosso"!<(! (F2 A2 F2 | B2 G2) (B2 G2 | %30
[Q:1/4=128]"^128" ([Ac]8-) | [Ac]2 [FA]2 [GB]2 [Ac]2) |[Q:1/4=132]"^132" [Ac]8- | %33
 [Ac]2[Q:1/4=136]"^136" (A2 B2!<)!!mp!!<(! c2 |[Q:1/4=150] d2 e2 f2 g2 | %35
 a2!<)!!f![Q:1/4=136]"^136"!>(! b2[Q:1/4=132]"^132" c'2[Q:1/4=128]"^128" d'2!>)! | %36
[Q:1/4=116]"^rit."[Q:1/4=71]"^Adagio"!p! (f'4) (e'4)[Q:1/4=50]"^Largo" | (e8) || %38
[K:A]!p![Q:1/4=112]"^tempo rubato (un peu moins vite)"[Q:1/4=71]"^Adagio" (3(e)de c2- cBBc | %39
 A2 F4 G2) |!<(! (FE!<)!!>(! f4 e2)!>)! | %41
!p!!<(! (FE!<)! g2-!>(! g!tenuto!b!tenuto!a!tenuto!f)!>)! |!p! (3ede c2- cBBc | %43
 (A2[Q:1/4=92]"^Andante" F2- F)!<(!(FFG)!<)! |!mp! (3(FE!>(!B,[Q:1/4=71]"^Adagio" C4 [CE]2)!>)! | %45
!p! [B,E]6 z2[Q:1/4=94]"^Andantino" | %46
[K:bass][Q:1/4=142]"^mosso"!p! (3(D,F,A, (3CB,A,)"^cresc."!<(! (3(G,B,D (3FED) | %47
[K:treble] (3(CEG (3BAG) (3(FAc (3edc) | %48
[Q:1/4=114]"^Moderato" (3(Bdf!<)!!ff![Q:1/4=92]"^Andante" a2-) (ag)(fe) | %49
 (fedc)[Q:1/4=134]"^rit."[Q:1/4=71]"^Adagio"!>(! (d[Q:1/4=52]"^Lento"c[Q:1/4=50]"^Largo"B[Q:1/4=35]"^Grave"A)!>)! | %50
[K:bass]!p![Q:1/4=142]"^mosso" (3(D,F,A, (3CB,A,)"^cresc."!<(! (3(G,B,D (3FED) | %51
[K:treble] (3(CEG (3BAG) (3(FAc (3edc) | %52
[Q:1/4=114]"^Moderato"!<(! (3(Bdf!<)!!<)!!ff![Q:1/4=92]"^Andante" a2-) (ag)(fg) | %53
!f!!<(! (3(Bdf!<)!!ff! a2-) (ag)[Q:1/4=71]"^Adagio"(fg) | %54
!p![Q:1/4=112]"^a tempo"[Q:1/4=71]"^Adagio" (3(ede c2- cBBc | A2 F4 G2) | %56
!<(! (FE!<)!!>(! f4 e2)!>)! |!p!!<(! (FE!<)! g2- g!tenuto!b!tenuto!a!tenuto!f) | %58
!p! (3ede c2- cBBc | (A2 G2-[Q:1/4=92]"^Andante" G)!<(!(FFG)!<)! | %60
!mp! (3(FE!>(!B,[Q:1/4=71]"^Adagio" C4 [CE]2)!>)! |!p! [B,E]6 z2 | %62
[Q:1/4=126]"^risoluto"!f![Q:1/4=71]"^Adagio" (3=G=FG [A,=CE]4 D2 | =C2 =G,4 C2 | %64
!<(! D2 [=C=F]2 [C=G]2 A=c!<)! | %65
!ff! [Bd]4!>(! =G4!>)![Q:1/4=60][Q:1/4=50]"^Largo"[Q:1/4=35]"^Grave" | %66
"_dim. molto"[Q:1/4=124]"^rit."[Q:1/4=63]"^Larghetto"!mp!!>(! (3(=g=fg e4 d2 | e4 =f4) | %68
!pp! (3=g=fg e4"^più dim." g2 | %69
!ppp![Q:1/4=50]"^Largo" (3^g^fg[Q:1/4=52]"^Lento" e4[Q:1/4=35]"^Grave" g2!>)! || %70
[K:E][Q:1/4=120]"^tempo primo"!p![Q:1/4=60] (a4[Q:1/4=120] g4[Q:1/4=90][Q:1/4=110][Q:1/4=90] | %71
 f4 e4)[Q:1/4=120]"^Andantino con moto" | z2!<(! (c2 f2 c2-!<)! |!mp! c2)!<(! (c2 f2 a2-!<)! | %74
!mf![Q:1/4=92]"^Andante"!<(! (a2)[Q:1/4=80] a4-!<)!!f!!>(! (3a[Q:1/4=35]"^Grave"gf)!>)![Q:1/4=70][Q:1/4=116]"^rit."[Q:1/4=50]"^Largo" | %75
[Q:1/4=120]"^a tempo"!p! z2 (3(efc (3eBc (3GBF | (3GEG) (D4 C2 | B,2) (3(efc (3eBc (3GBF | %78
 (3GEG D4 C2) |"^poco a poco cresc."!<(! (3(B,A,B, C2- CEDE | C2) (G4 E2) |!mp! (3(DCD E2- EGFG | %82
 E2)!mf! (c4 (3^AcA |[Q:1/4=122]"^stringendo""^sempre cresc." G2)!f! (e4 (3cec)[Q:1/4=124]"^124" | %84
!ff![Q:1/4=120] (g3 f) (g3 f)[Q:1/4=110] | %85
!f![Q:1/4=100] (g3 f)[Q:1/4=128]"^rit."!mf![Q:1/4=80] !tenuto!g !tenuto!f2!mp![Q:1/4=60] !tenuto!g!<)![Q:1/4=90] | %86
[Q:1/4=120]"^a tempo"!p! (=a4 g4 | f4 e4) | (a2 bc'!<(! agag- | g2 f2- f2 e2-)!<)! | %90
!mp! e(=def dcdc- | c2 B4 A2-) | (AGAG cA F2-) |[M:2/4]!<(! FEFE!<)! |[M:4/4]!mf!"_dim."!>(! A8 | %95
 (3abc' (3e'c'b (3aec (3BAE!>)! |"^più dim."!mp![Q:1/4=114]"^Moderato"!>(! G8 | %97
[Q:1/4=92]"^Andante" F8[Q:1/4=71] |[Q:1/4=120]"^a tempo" E2!>)!!p!!>(! (3(e'f'c' (3e'bc' (3gbf | %99
 (3geg d4 c2 | B2)!>)!!pp! (3(efc (3eBc (3GBF | (3GEG D4 C2) | %102
 (3z B,[I:staff +1]E,[I:staff -1] (3z!p! C[I:staff +1]G,[I:staff -1] (3z E[I:staff +1]B,[I:staff -1] (3z FC | %103
!<(! (3z BE (3z cG (3z eB (3z fc!<)! | %104
!mf! (3z (be!>(! (3z[Q:1/4=94]"^Andantino" c'g (3z[Q:1/4=92]"^Andante" e'b (3z[Q:1/4=71]"^Adagio" f'c')!>)! | %105
!pp![Q:1/4=63]"^Larghetto" (!tenuto![e'g']2 !tenuto![e'g']4[Q:1/4=50]"^Largo" !tenuto![e'g']2) | %106
!ppp! E2 z2 z4 |] %107
V:2
!ped! (3(CEA x2 x2 (3GDB,)!ped-up! |!ped! (3(A,CF x2 x2 (3EB,G,)!ped-up! | %2
[K:bass]!ped!(3xA,C- C2(3xA,C- C2!ped-up! |!ped!(3xA,C- C2(3xA,E- E2!ped-up! | %4
!ped! (3B,,F,A, (3C[K:treble]DF (3Ac!p!d!p! (3cBA!ped-up! | %5
[K:bass]!ped! (E,,B,,E,G, B,G,E,B,,)!ped-up! |!ped! (E,,C,E,G, CG,E,C,)!ped-up! | %7
!ped! (E,,B,,E,G, B,G,E,B,,)!ped-up! |!ped! (E,,C,E,G, CG,E,C,)!ped-up! | %9
!ped! (F,,C,E,F, A,F,E,C,)!ped-up! |!ped! (G,,C,E,G, B,G,E,C,)!ped-up! | %11
!ped! (A,,E,F,A,) (CA,F,E,)!ped-up! |!ped! (^A,,E,G,C) (C,F,^A,E)!ped-up! | %13
!ped! (E,^A,CG) (F,CE^A)!ped-up! |[K:treble]!ped! (^A,EGc) (CF^Ae)!ped-up! | %15
!ped! (^A,EGc) (CF^Ae)!ped-up! |!ped! (3(CE=A x2 x2 (3GDB,)!ped-up! | %17
!ped! (3(A,CF x2 x2 (3EB,G,)!ped-up! |!ped! (3(^^F,CD (3^ADC)!ped-up!!ped! (3(G,CE (3BEC)!ped-up! | %19
!ped! (3^^F,CD (3^ADC!ped-up![K:bass]!ped! (3(E,=A,C (3GCA,)!ped-up! | %20
!ped! (3(D,A,B, (3FB,A,)!ped-up!!ped! (3(C,F,A, (3EA,F,)!ped-up! | %21
!ped! (3(^B,,F,G, (3DG,F,)!ped-up!!ped! (3(C,F,A, (3EA,F,)!ped-up! | %22
!ped! (3(^B,,F,G, (3DG,F,)!ped-up!!ped! (3(=B,,F,A, (3=DA,F,)!ped-up! | %23
!ped! (3(B,,E,G, (3=D!>(!G,E,)!ped-up!!ped! (3(B,,!>)!F,A, (3DA,F,)!ped-up! | %24
!ped! (3(B,,E,G, (3=DG,E,)!ped-up!!ped! (3(E,,B,,E, (3F,G,B,)!ped-up! | %25
!ped! (3A,,,A,,-[I:staff -1]E,[I:staff +1] A,,6- | A,,8!ped-up! |!ped! (=D,,A,, F,6)!ped-up! | %28
!ped! (B,,,B,,F,A, B,2) z2!ped-up! |!ped! (G,,,G,,E,G, B,2) z2!ped-up! | %30
!ped! (3(F,,,F,,C, (3E,F,A, (3C[I:staff -1]EF[I:staff +1] x2 | %31
[I:staff -1] (E4)[I:staff +1] D2 C2)!ped-up! | %32
!ped! (3F,,,F,,C, (3E,F,A, (3C[I:staff -1]EF[I:staff +1] x2 | %33
[I:staff -1] (E4!ped-up!!ped![I:staff +1] F,4) | (.B,,2 .F,2 .A,2 .B,2 | %35
 .D2[K:treble] .F2 .A2 .B2)!ped-up! |[K:bass]!ped! (E,,,E,,B,,E, G,B,EG) | z4 E4!ped-up! || %38
[K:A]!ped! F6 D2 | [F,C]2 [B,,A,]6!ped-up! |!ped! [E,,B,,]2 (F4 E2)!ped-up! | %41
!ped! ([A,,E,]2 [E,A,CE]6)!ped-up! |!ped! (F6 =F2)!ped-up! | %43
!ped! ([F,C]2 [B,,A,]4 [A,,^D,]2)!ped-up! |!ped! ([G,,E,]2 [F,,E,]4 [B,,,B,,]2!ped-up! | %45
!ped! [E,,B,,]4) (!>!E,,2 !>!E,2)!ped-up! |!ped! z2 (F,,4 E,,2) | %47
 z2!ped-up!!ped! (([A,,,A,,]4 [D,,D,]2)) | %48
 z2!ped-up!!ped! ([B,,,B,,]2 [F,B,DF]2) [E,,E,]2!ped-up! |!ped! [A,,,A,,]2 E,2 (FEDC)!ped-up! | %50
!ped! z2 (F,,4 E,,2) | z2!ped-up!!ped! (([A,,,A,,]4 [D,,D,]2)) | %52
 z2!ped-up!!ped! [B,,,B,,] z !>![F,B,DF]4 | z2!ped-up!!ped! [D,,D,] z !>![F,B,DF]4!ped-up! | %54
!ped! D8 | [A,C]4 [B,,A,]4!ped-up! |!ped! [E,,B,,]2 (F4 E2)!ped-up! | %57
!ped! ([A,,E,]2 [E,A,CE]6)!ped-up! |!ped! (F6 =F2)!ped-up! | %59
!ped! ([F,C]4 [B,,A,]2 [A,,^D,]2)!ped-up! |!ped! ([G,,E,]2 [F,,E,]4 [B,,,B,,]2!ped-up! | %61
!ped! [E,,B,,]4) (E,,2 E,2)!ped-up! |!ped! [E,,=C,]2 [=F,,C,]4 =G,,2!ped-up! | %63
!ped! A,,2 B,,4 A,,2!ped-up! |!ped! =G,,2 =F,,2 E,,2 [D,,D,]2!ped-up! | %65
!ped! =G,,,=G,,D,=F, =G,B,D=F!ped-up! |[K:treble]!ped! ([E=G]4 [=FA]4 | [=G_B]4 [=FA]4)!ped-up! | %68
!ped! [E-=G]8 | ^G8!ped-up! ||[K:E]!ped! (3(CE=A x2 x2 (3GDB,)!ped-up! | %71
!ped! (3(A,CF x2 x2 (3EB,G,)!ped-up! |[K:bass]!ped!(3xA,C- C2(3xA,C- C2!ped-up! | %73
!ped!(3xA,C- C2(3xA,E- E2!ped-up! | %74
!ped! (3(B,,F,A, (3CDF[K:treble] (3Acd (3c!tenuto!B!tenuto!A)!ped-up! | %75
[K:bass]!ped! (E,,B,,E,G, B,G,E,B,,)!ped-up! |!ped! (E,,C,E,G, CG,E,C,)!ped-up! | %77
!ped! (E,,B,,E,G, B,G,E,B,,)!ped-up! |!ped! (E,,C,E,G, CG,E,C,)!ped-up! | %79
!ped! (F,,C,E,F, A,F,E,C,)!ped-up! |!ped! (G,,C,E,G, B,G,E,C,)!ped-up! | %81
!ped! (A,,E,F,A,) (CA,F,E,)!ped-up! |!ped! (^A,,E,G,C) (C,F,^A,E)!ped-up! | %83
!ped! (E,^A,CG) (F,CE^A)!ped-up! |[K:treble]!ped! (^A,EGc) (CF^Ae)!ped-up! | %85
!ped! (^A,EGc) (CF^Ae)!ped-up! |!ped! (3(CE=A x2 x2 (3GDB,)!ped-up! | %87
!ped! (3(A,CF x2 x2 (3EB,G,)!ped-up! |!ped!(3xEA (3cAE!ped-up!!ped!(3xDG (3BGD!ped-up! | %89
!ped!(3xCF (3AFC!ped-up!!ped!(3xB,E (3GEB,!ped-up! | %90
[K:bass]!ped!(3xA,=D (3FDA,!ped-up!!ped!(3xG,C (3ECG,!ped-up! | %91
!ped!(3xF,B, (3=DB,F,!ped-up!!ped!(3xE,A, (3CA,E,!ped-up! | %92
!ped!(3x^E,G, (3B,G,E,!ped-up!!ped!(3xC,F, (3A,F,C,!ped-up! | %93
[M:2/4]!ped!(3xB,,E, (3G,E,B,,!ped-up! | %94
[M:4/4]!ped! (3F,,C,E, (3F,A,B, (3C[I:staff -1]EA[I:staff +1] x2 | x8!ped-up! | %96
!ped! (3B,,,B,,D, (3G,B,[I:staff -1]D[I:staff +1] x4!ped-up! | %97
!ped! (3B,,,B,,D, (3A,B,[I:staff -1]D[I:staff +1] x4!ped-up! | %98
!ped! (E,,B,,E,G, B,G,E,B,,)!ped-up! |!ped! (E,,C,E,G, CG,E,C,)!ped-up! | %100
!ped! (E,,B,,E,G, B,G,E,B,,)!ped-up! |!ped! (E,,C,E,G, CG,E,C,)!ped-up! | %102
!ped! (E,,2 B,,2 E,2 G,2) | (E,2 B,2 E2 G2) |[K:treble] (E2 B2 e2 g2) | %105
 (!tenuto![eb]2 !tenuto![eb]4 !tenuto![eb]2) |[K:bass] [E,,E,]2 z2 z4!ped-up! |] %107
V:3
 x8 | x8 | x2 (3cFA- A2 (3cFA- | A2 (3cFA- A2 (3aAc | x8 | x8 | x8 | x8 | x8 | x8 | x8 | x8 | x8 | %13
 x8 | x8 | x8 | x2 (3cef(3xdB x2 | x2 (3Acd(3xBG x2 | x8 | x8 | x8 | x8 | x8 | x8 | x8 | %25
[K:bass] x2 (3=G,A,B, (3A,E,G, (3A,B,A, | =G,8 |[K:treble] z2 (3(A,B,C (3B,A,B, (3CB,A, | %28
 C4) ^D4- | D4 E4 | x6 (3AGF | x8 | x6 (3AGF | x2 (3FCE (3GDF (3AEG | (3BFA (3cGB (3dAc (3eBd | %35
 (3fce (3gdf (3aeg (3bfa | [gb]8 | z8 ||[K:A] A6 G2 | F2 ^D6 | [G,=D]2 [Bd]6 | [A,C]2 [Ac]6 | %42
 A6 G2 | E4 ^D2 C2 | B,2 A,4 A,2 | (A,2 G,4) x2 |[K:bass] x8 |[K:treble] x8 | x4 [Bd]2 [Gd]2 | %49
 [Ac]4 A4 |[K:bass] x8 |[K:treble] x8 | x4 [Bd]4 | x4 [Bd]4 | G4 F2 =F2 | E4 ^D4 | [G,=D]2 [Bd]6 | %57
 [A,C]2 [Ac]6 | A6 G2 | E4 ^D2 C2 | B,2 A,4 A,2 | (A,2!<(! G,4) x2!<)! | %62
 [=G,=C]2 x4[I:staff +1] [=F,B,]2 | [E,A,]2 [D,=F,]4 [E,A,]2 | %64
 [=F,B,]2 A,2 =G,2[I:staff -1] [=C=F]2 | =F8 | =c8- | c8 | =c8- | c4 ^c4 || %70
[K:E] x2"^Andantino con moto" (3cef(3xdB x2 | x2 (3Acd(3xBG x2 | x2 (3cFA- A2 (3cFA- | %73
 A2 (3cFA- A2 (3aAc | x8 | x8 | x8 | x8 | x8 | x8 | x8 | x8 | x8 | x8 | x8 | x8 | %86
 x2 (3cef(3xdB x2 | x2 (3Acd(3xBG x2 | z2 e2 z2 d2 | c4 B4 | z2 A2 z2 G2 | F4 E4 | =D4 C4 | %93
[M:2/4] B,4 |[M:4/4] x6 (3Bce | x8 | x4 (3GBd (3gbB | x4 (3ABd"^Adagio" (3abB | x8 | x8 | x8 | x8 | %102
 x8 | x8 | x8 | x8 | x8 |] %107
V:4
 x8 | x8 |[K:bass] F,4 E,4 | (D,4 C,4) | x8/3[K:treble] x16/3 |[K:bass] x8 | x8 | x8 | x8 | x8 | %10
 x8 | x8 | x8 | x8 |[K:treble] x8 | x8 | x8 | x8 | x8 | x4[K:bass] x4 | x8 | x8 | x8 | x8 | x8 | %25
 x8 | x8 | x8 | x8 | x8 | x8 | x8 | x8 | x8 | x8 | x2[K:treble] x6 |[K:bass] x8 | x8 || %38
[K:A] B,C D4 E,2 | x8 | x2 [G,D]6 | x8 | (B,C D6) | x8 | x8 | x8 | x8 | x8 | x8 | x8 | x8 | x8 | %52
 x8 | x8 | E,4 F,2 G,2 | x8 | x2 [G,D]6 | x8 | (B,C D6) | x8 | x8 | x8 | x8 | x8 | x8 | x8 | %66
[K:treble] x8 | x8 | x8 | E6- E^D ||[K:E] x8 | x8 |[K:bass] F,4 E,4 | (D,4 C,4) | x4[K:treble] x4 | %75
[K:bass] x8 | x8 | x8 | x8 | x8 | x8 | x8 | x8 | x8 |[K:treble] x8 | x8 | x8 | x8 | (C4 B,4 | %89
 A,4 G,4) |[K:bass] (F,4 E,4 | =D,4 C,4) | B,,4 A,,4 |[M:2/4] G,,4 |[M:4/4] x8 | x8 | x8 | x8 | %98
 x8 | x8 | x8 | x8 | x8 | x8 |[K:treble] x8 | x8 |[K:bass] x8 |] %107

